frontend/manage/src/assets/svg/camera.svg

<svg fill="none" height="50" viewBox="0 0 50 50" width="50" xmlns="http://www.w3.org/2000/svg" xmlns:xlink="http://www.w3.org/1999/xlink"><clipPath id="a"><path d="m7 7h36v36h-36z"/></clipPath><rect fill="#d8d8d8" height="50" rx="25" width="50"/><g clip-path="url(#a)" fill="#303030"><path d="m30.625 26.125c0 1.4918-.5926 2.9226-1.6475 3.9775s-2.4857 1.6475-3.9775 1.6475-2.9226-.5926-3.9775-1.6475-1.6475-2.4857-1.6475-3.9775.5926-2.9226 1.6475-3.9775 2.4857-1.6475 3.9775-1.6475 2.9226.5926 3.9775 1.6475 1.6475 2.4857 1.6475 3.9775z"/><path d="m11.5 16c-1.1935 0-2.33807.4741-3.18198 1.318s-1.31802 1.9885-1.31802 3.182v13.5c0 1.1935.47411 2.3381 1.31802 3.182s1.98848 1.318 3.18198 1.318h27c1.1935 0 2.3381-.4741 3.182-1.318s1.318-1.9885 1.318-3.182v-13.5c0-1.1935-.4741-2.3381-1.318-3.182s-1.9885-1.318-3.182-1.318h-2.637c-1.1934-.0003-2.3378-.4745-3.1815-1.3185l-1.863-1.863c-.8437-.844-1.9881-1.3182-3.1815-1.3185h-5.274c-1.1934.0003-2.3378.4745-3.1815 1.3185l-1.863 1.863c-.8437.844-1.9881 1.3182-3.1815 1.3185zm1.125 4.5c-.2984 0-.5845-.1185-.7955-.3295s-.3295-.4971-.3295-.7955.1185-.5845.3295-.7955.4971-.3295.7955-.3295.5845.1185.7955.3295.3295.4971.3295.7955-.1185.5845-.3295.7955-.4971.3295-.7955.3295zm20.25 5.625c0 2.0886-.8297 4.0916-2.3065 5.5685-1.4769 1.4768-3.4799 2.3065-5.5685 2.3065s-4.0916-.8297-5.5685-2.3065c-1.4768-1.4769-2.3065-3.4799-2.3065-5.5685s.8297-4.0916 2.3065-5.5685c1.4769-1.4768 3.4799-2.3065 5.5685-2.3065s4.0916.8297 5.5685 2.3065c1.4768 1.4769 2.3065 3.4799 2.3065 5.5685z"/></g></svg>

<svg width="50" height="50" viewBox="0 0 50 50" fill="none" xmlns="http://www.w3.org/2000/svg">
<rect width="50" height="50" rx="25" fill="#D8D8D8"/>
<g clip-path="url(#clip0)">
<path d="M30.625 26.125C30.625 27.6168 30.0324 29.0476 28.9775 30.1025C27.9226 31.1574 26.4918 31.75 25 31.75C23.5082 31.75 22.0774 31.1574 21.0225 30.1025C19.9676 29.0476 19.375 27.6168 19.375 26.125C19.375 24.6332 19.9676 23.2024 21.0225 22.1475C22.0774 21.0926 23.5082 20.5 25 20.5C26.4918 20.5 27.9226 21.0926 28.9775 22.1475C30.0324 23.2024 30.625 24.6332 30.625 26.125Z" fill="#303030"/>
<path d="M11.5 16C10.3065 16 9.16193 16.4741 8.31802 17.318C7.47411 18.1619 7 19.3065 7 20.5L7 34C7 35.1935 7.47411 36.3381 8.31802 37.182C9.16193 38.0259 10.3065 38.5 11.5 38.5H38.5C39.6935 38.5 40.8381 38.0259 41.682 37.182C42.5259 36.3381 43 35.1935 43 34V20.5C43 19.3065 42.5259 18.1619 41.682 17.318C40.8381 16.4741 39.6935 16 38.5 16H35.863C34.6696 15.9997 33.5252 15.5255 32.6815 14.6815L30.8185 12.8185C29.9748 11.9745 28.8304 11.5003 27.637 11.5H22.363C21.1696 11.5003 20.0252 11.9745 19.1815 12.8185L17.3185 14.6815C16.4748 15.5255 15.3304 15.9997 14.137 16H11.5ZM12.625 20.5C12.3266 20.5 12.0405 20.3815 11.8295 20.1705C11.6185 19.9595 11.5 19.6734 11.5 19.375C11.5 19.0766 11.6185 18.7905 11.8295 18.5795C12.0405 18.3685 12.3266 18.25 12.625 18.25C12.9234 18.25 13.2095 18.3685 13.4205 18.5795C13.6315 18.7905 13.75 19.0766 13.75 19.375C13.75 19.6734 13.6315 19.9595 13.4205 20.1705C13.2095 20.3815 12.9234 20.5 12.625 20.5ZM32.875 26.125C32.875 28.2136 32.0453 30.2166 30.5685 31.6935C29.0916 33.1703 27.0886 34 25 34C22.9114 34 20.9084 33.1703 19.4315 31.6935C17.9547 30.2166 17.125 28.2136 17.125 26.125C17.125 24.0364 17.9547 22.0334 19.4315 20.5565C20.9084 19.0797 22.9114 18.25 25 18.25C27.0886 18.25 29.0916 19.0797 30.5685 20.5565C32.0453 22.0334 32.875 24.0364 32.875 26.125Z" fill="#303030"/>
</g>
<defs>
<clipPath id="clip0">
<rect width="36" height="36" fill="white" transform="translate(7 7)"/>
</clipPath>
</defs>
</svg>
